alura/assets/api/cursos/xp-extreme-programming.svg

<svg xmlns="http://www.w3.org/2000/svg" viewBox="0 0 50 50"><path fill="#00c8e2" d="M47.7 25.8l.6 4.2L1.7 45.4l-.1-8.7.3-5.2 46.3-15.3-.7 3.6z"/><path fill="#00dffc" d="M47.3 9.6l-.4 7.6-45.4 15-.2-9.5.3-4.3L47.3 3.2z"/><path fill="none" stroke="#444" stroke-linecap="round" stroke-linejoin="round" stroke-miterlimit="10" stroke-width="2.5" d="M23.9 47.5H1.8V2.1h46.4v27.8"/><path fill="#444" d="M17.3 30.4c0-1.5-1.3-2.8-2.8-2.8s-2.8 1.3-2.8 2.8c0 1.5 1.3 2.8 2.8 2.8s2.8-1.3 2.8-2.8zm-2.8.9c-.5 0-.9-.4-.9-.9s.4-.9.9-.9.9.4.9.9-.4.9-.9.9zm23.4-.9c0-1.5-1.3-2.8-2.8-2.8-1.5 0-2.8 1.3-2.8 2.8 0 1.5 1.3 2.8 2.8 2.8 1.5 0 2.8-1.3 2.8-2.8zm-2.8.9c-.5 0-.9-.4-.9-.9s.4-.9.9-.9.9.4.9.9-.4.9-.9.9zm0 1.9c-1.5 0-2.9.6-4 1.7-.1.1-.2.2-.3.4-1-2.3-3.3-3.9-6-3.9s-5 1.6-6 3.9c-1.1-1.3-2.7-2-4.3-2-3.1 0-5.7 2.6-5.7 5.7v.9c0 .5.4.9.9.9h30c.5 0 .9-.4.9-.9V39c.1-3.2-2.4-5.8-5.5-5.8zm-24.4 5.7c0-2.1 1.7-3.8 3.8-3.8 2.1 0 3.7 1.7 3.7 3.8h-7.5zm18.8 0h-9.3v-1c0-2.6 2.1-4.7 4.7-4.7s4.7 2.1 4.7 4.7v1zm1.8 0c0-2.1 1.7-3.8 3.7-3.8 2.1 0 3.8 1.7 3.8 3.8h-7.5zm-2.8-11.3c0-2.1-1.7-3.7-3.7-3.7S21 25.5 21 27.6s1.7 3.7 3.7 3.7 3.8-1.7 3.8-3.7zm-3.7 1.8c-1 0-1.9-.8-1.9-1.9 0-1 .8-1.9 1.9-1.9 1 0 1.9.8 1.9 1.9 0 1.1-.9 1.9-1.9 1.9zm-9.4-3.7c2.3 0 4.2-1.7 4.6-3.8h12.2c1.5 0 2.8-1.3 2.8-2.8v-7.5c0-1.5-1.3-2.8-2.8-2.8H17.3c-1.5 0-2.8 1.3-2.8 2.8v13.1c0 .6.4 1 .9 1zm1-14.1c0-.5.4-.9.9-.9h14.9c.5 0 .9.4.9.9v7.5c0 .5-.4.9-.9.9h-13c-.5 0-.9.4-.9.9 0 1.2-.8 2.3-1.9 2.7v-12z"/><path fill="#444" stroke="#444" stroke-miterlimit="10" stroke-width=".4" d="M27.5 13.2c-.2-.2-.7-.2-.9 0l-2.2 2.2-.8-.8c-.2-.2-.7-.2-.9 0-.2.2-.2.7 0 .9l1.3 1.3c.1.1.3.2.5.2.1 0 .3-.1.5-.2l2.6-2.6c.2-.3.2-.8-.1-1z"/></svg>

<?xml version="1.0" encoding="utf-8"?>
<!-- Generator: Adobe Illustrator 24.0.0, SVG Export Plug-In . SVG Version: 6.00 Build 0)  -->
<svg version="1.1" id="Layer_1" xmlns="http://www.w3.org/2000/svg" xmlns:xlink="http://www.w3.org/1999/xlink" x="0px" y="0px"
	 viewBox="0 0 50 50" style="enable-background:new 0 0 50 50;" xml:space="preserve">
<style type="text/css">
	.st0{fill:#00C8E2;}
	.st1{fill:#00DFFC;}
	.st2{fill:none;stroke:#444444;stroke-width:2.5;stroke-linecap:round;stroke-linejoin:round;stroke-miterlimit:10;}
	.st3{fill:#444444;}
	.st4{fill:#444444;stroke:#444444;stroke-width:0.4;stroke-miterlimit:10;}
</style>
<g>
	<polygon class="st0" points="47.7,25.8 48.3,30 1.7,45.4 1.6,36.7 1.9,31.5 48.2,16.2 47.5,19.8 	"/>
	<polygon class="st1" points="47.3,9.6 46.9,17.2 1.5,32.2 1.3,22.7 1.6,18.4 47.3,3.2 	"/>
	<polyline class="st2" points="23.9,47.5 1.8,47.5 1.8,2.1 48.2,2.1 48.2,29.9 	"/>
</g>
<g>
	<g>
		<path class="st3" d="M17.3,30.4c0-1.5-1.3-2.8-2.8-2.8s-2.8,1.3-2.8,2.8c0,1.5,1.3,2.8,2.8,2.8S17.3,31.9,17.3,30.4z M14.5,31.3
			c-0.5,0-0.9-0.4-0.9-0.9c0-0.5,0.4-0.9,0.9-0.9s0.9,0.4,0.9,0.9C15.4,30.9,15,31.3,14.5,31.3z M37.9,30.4c0-1.5-1.3-2.8-2.8-2.8
			c-1.5,0-2.8,1.3-2.8,2.8c0,1.5,1.3,2.8,2.8,2.8C36.6,33.2,37.9,31.9,37.9,30.4z M35.1,31.3c-0.5,0-0.9-0.4-0.9-0.9
			c0-0.5,0.4-0.9,0.9-0.9s0.9,0.4,0.9,0.9C36,30.9,35.6,31.3,35.1,31.3z M35.1,33.2c-1.5,0-2.9,0.6-4,1.7c-0.1,0.1-0.2,0.2-0.3,0.4
			c-1-2.3-3.3-3.9-6-3.9s-5,1.6-6,3.9c-1.1-1.3-2.7-2-4.3-2c-3.1,0-5.7,2.6-5.7,5.7v0.9c0,0.5,0.4,0.9,0.9,0.9h30
			c0.5,0,0.9-0.4,0.9-0.9v-0.9C40.7,35.8,38.2,33.2,35.1,33.2z M10.7,38.9c0-2.1,1.7-3.8,3.8-3.8c2.1,0,3.7,1.7,3.7,3.8H10.7z
			 M29.5,38.9h-9.3v-1c0-2.6,2.1-4.7,4.7-4.7s4.7,2.1,4.7,4.7V38.9z M31.3,38.9c0-2.1,1.7-3.8,3.7-3.8c2.1,0,3.8,1.7,3.8,3.8H31.3z
			 M28.5,27.6c0-2.1-1.7-3.7-3.7-3.7S21,25.5,21,27.6s1.7,3.7,3.7,3.7S28.5,29.6,28.5,27.6z M24.8,29.4c-1,0-1.9-0.8-1.9-1.9
			c0-1,0.8-1.9,1.9-1.9c1,0,1.9,0.8,1.9,1.9C26.7,28.6,25.8,29.4,24.8,29.4z M15.4,25.7c2.3,0,4.2-1.7,4.6-3.8h12.2
			c1.5,0,2.8-1.3,2.8-2.8v-7.5c0-1.5-1.3-2.8-2.8-2.8H17.3c-1.5,0-2.8,1.3-2.8,2.8v13.1C14.5,25.3,14.9,25.7,15.4,25.7z M16.4,11.6
			c0-0.5,0.4-0.9,0.9-0.9h14.9c0.5,0,0.9,0.4,0.9,0.9v7.5c0,0.5-0.4,0.9-0.9,0.9H19.2c-0.5,0-0.9,0.4-0.9,0.9c0,1.2-0.8,2.3-1.9,2.7
			V11.6z"/>
	</g>
</g>
<g>
	<g>
		<g>
			<path class="st4" d="M27.5,13.2c-0.2-0.2-0.7-0.2-0.9,0l-2.2,2.2l-0.8-0.8c-0.2-0.2-0.7-0.2-0.9,0c-0.2,0.2-0.2,0.7,0,0.9
				l1.3,1.3c0.1,0.1,0.3,0.2,0.5,0.2c0.1,0,0.3-0.1,0.5-0.2l2.6-2.6C27.8,13.9,27.8,13.4,27.5,13.2z"/>
		</g>
	</g>
</g>
</svg>
